Numix-GalliumOS/32/actions/format-text-none.svg

<?xml version="1.0" encoding="UTF-8" standalone="no"?>
<svg
   xmlns:dc="http://purl.org/dc/elements/1.1/"
   xmlns:cc="http://creativecommons.org/ns#"
   xmlns:rdf="http://www.w3.org/1999/02/22-rdf-syntax-ns#"
   xmlns:svg="http://www.w3.org/2000/svg"
   xmlns="http://www.w3.org/2000/svg"
   xmlns:sodipodi="http://sodipodi.sourceforge.net/DTD/sodipodi-0.dtd"
   xmlns:inkscape="http://www.inkscape.org/namespaces/inkscape"
   width="32"
   height="32"
   viewBox="0 0 32 32"
   id="svg2"
   version="1.1"
   inkscape:version="0.91 r13725"
   sodipodi:docname="format-text-none.svg">
  <metadata
     id="metadata14">
    <rdf:RDF>
      <cc:Work
         rdf:about="">
        <dc:format>image/svg+xml</dc:format>
        <dc:type
           rdf:resource="http://purl.org/dc/dcmitype/StillImage" />
        <dc:title></dc:title>
      </cc:Work>
    </rdf:RDF>
  </metadata>
  <defs
     id="defs12" />
  <sodipodi:namedview
     pagecolor="#ffffff"
     bordercolor="#666666"
     borderopacity="1"
     objecttolerance="10"
     gridtolerance="10"
     guidetolerance="10"
     inkscape:pageopacity="0"
     inkscape:pageshadow="2"
     inkscape:window-width="1366"
     inkscape:window-height="704"
     id="namedview10"
     showgrid="true"
     inkscape:zoom="1"
     inkscape:cx="28.753378"
     inkscape:cy="8.9289322"
     inkscape:window-x="0"
     inkscape:window-y="27"
     inkscape:window-maximized="1"
     inkscape:current-layer="svg2">
    <inkscape:grid
       type="xygrid"
       id="grid4142" />
  </sodipodi:namedview>
  <g
     style="fill:#268bd2"
     id="g4"
     transform="translate(0,2)">
    <path
       d="m 8,4 0,4 12,0 c 0.855469,0 2,1.226562 2,2 l 0,2 -10,0 C 10.160156,12 8.527344,12.769531 7.5,13.9375 6.472656,15.105469 5.988281,16.558594 6,18 6.011719,19.441406 6.539062,20.90625 7.5625,22.0625 8.585938,23.21875 10.183594,24 12,24 l 14,0 0,-14 C 26,6.730469 23.359375,4 20,4 Z m 4,12 10,0 0,4 -10,0 C 11.203125,20 10.867188,19.78125 10.5625,19.4375 10.257812,19.09375 10.003906,18.558594 10,18 9.996094,17.441406 10.207031,16.894531 10.5,16.5625 10.789062,16.230469 11.15625,16 12,16 Z"
       id="path6"
       inkscape:connector-curvature="0" />
  </g>
  <path
     style="fill:#dc322f;fill-opacity:1"
     d="M 32,28.125001 28.125001,24.25 32,20.374999 28.125001,16.5 24.25,20.374999 20.374999,16.5 16.5,20.374999 20.374999,24.25 16.5,28.125001 20.374999,32 24.25,28.125001 28.125001,32 Z"
     id="path6-0"
     inkscape:connector-curvature="0" />
</svg>

<svg xmlns="http://www.w3.org/2000/svg" viewBox="0 0 32 32">
 <g transform="translate(0,2)" style="fill:#268bd2">
  <path d="m 8 4 0 4 12 0 c 0.855 0 2 1.227 2 2 l 0 2 -10 0 c -1.84 0 -3.473 0.77 -4.5 1.938 -1.027 1.168 -1.512 2.621 -1.5 4.063 0.012 1.441 0.539 2.906 1.563 4.063 1.023 1.156 2.621 1.938 4.438 1.938 l 14 0 0 -14 c 0 -3.27 -2.641 -6 -6 -6 m -8 12 10 0 0 4 -10 0 c -0.797 0 -1.133 -0.219 -1.438 -0.563 -0.305 -0.344 -0.559 -0.879 -0.563 -1.438 -0.004 -0.559 0.207 -1.105 0.5 -1.438 0.289 -0.332 0.656 -0.563 1.5 -0.563"/>
 </g>
 <path d="m 32 28.13 -3.875 -3.875 3.875 -3.875 -3.875 -3.875 -3.875 3.875 -3.875 -3.875 -3.875 3.875 3.875 3.875 -3.875 3.875 3.875 3.875 3.875 -3.875 3.875 3.875" style="fill:#dc322f;fill-opacity:1"/>
</svg>
